contributed-vectors/mobywatel.svg

<?xml version="1.0" encoding="UTF-8" standalone="no"?>
<svg
   xmlns:dc="http://purl.org/dc/elements/1.1/"
   xmlns:cc="http://creativecommons.org/ns#"
   xmlns:rdf="http://www.w3.org/1999/02/22-rdf-syntax-ns#"
   xmlns:svg="http://www.w3.org/2000/svg"
   xmlns="http://www.w3.org/2000/svg"
   xmlns:sodipodi="http://sodipodi.sourceforge.net/DTD/sodipodi-0.dtd"
   xmlns:inkscape="http://www.inkscape.org/namespaces/inkscape"
   width="100%"
   height="100%"
   viewBox="0 0 192 192"
   version="1.1"
   xml:space="preserve"
   style="fill-rule:evenodd;clip-rule:evenodd;stroke-linejoin:round;stroke-miterlimit:2;"
   id="svg15"
   sodipodi:docname="mobywatel.svg"
   inkscape:version="1.0.1 (3bc2e813f5, 2020-09-07)"
   inkscape:export-filename="mobywatel.png"
   inkscape:export-xdpi="96"
   inkscape:export-ydpi="96"><metadata
   id="metadata21"><rdf:RDF><cc:Work
       rdf:about=""><dc:format>image/svg+xml</dc:format><dc:type
         rdf:resource="http://purl.org/dc/dcmitype/StillImage" /></cc:Work></rdf:RDF></metadata><defs
   id="defs19" /><sodipodi:namedview
   pagecolor="#ffffff"
   bordercolor="#666666"
   borderopacity="1"
   objecttolerance="10"
   gridtolerance="10"
   guidetolerance="10"
   inkscape:pageopacity="0"
   inkscape:pageshadow="2"
   inkscape:window-width="1884"
   inkscape:window-height="1052"
   id="namedview17"
   showgrid="false"
   inkscape:zoom="3.4635417"
   inkscape:cx="96"
   inkscape:cy="97.490526"
   inkscape:window-x="36"
   inkscape:window-y="0"
   inkscape:window-maximized="1"
   inkscape:current-layer="svg15" />
    <g
   id="g888"
   transform="matrix(0.99346405,0,0,0.99346405,0.6274512,0.6274512)"><g
     transform="translate(8,8)"
     id="g4"
     style="fill:#ff837d;fill-opacity:1">
            <path
   d="m 164.5,21.5 c 0,-5.519 -4.481,-10 -10,-10 h -133 c -5.519,0 -10,4.481 -10,10 v 133 c 0,5.519 4.481,10 10,10 h 133 c 5.519,0 10,-4.481 10,-10 z"
   style="fill:#ff837d;fill-opacity:1"
   id="path2" />
        </g><g
     transform="matrix(0.746033,0,0,0.746033,24.704,26.5096)"
     id="g12">
            <path
   d="m 123.664,126.395 c 0,0 8.203,4.003 1.661,7.516 0,0 1.377,-2.841 -3.124,-4.536 0,0 5.577,6.173 -2.279,7.032 0,0 2.905,-3.354 -2.24,-7.032 0,0 -4.028,-2.403 -3.433,3.085 0,0 -9.059,-4.737 0.249,-6.408 l -8.37,-10.324 c 0,0 -2.69,2.287 -4.337,1.614 0,0 1.274,-1.203 1.289,-2.677 0,0 -0.645,0.343 -1.489,0.258 0,0 1.389,-5.77 -3.05,-9.378 0,0 -0.985,5.389 2.16,10.807 0,0 -1.361,-0.05 -2.402,-1.482 0,0 -0.618,6.727 5.558,6.286 0,0 1.011,5.27 -4.887,3.13 0,0 5.68,7.288 6.597,0.513 0,0 3.22,-0.033 3.045,3.506 0,0 -1.228,6.39 -9.112,1.879 0,0 5.136,8.879 7.909,2.34 2.774,-6.54 -0.013,0.031 -0.013,0.031 0,0 5.293,4.599 -2.447,6.411 0,0 -5.257,1.074 -7.427,-4.653 0,0 1.581,6.987 -2.092,10.091 -3.672,-3.104 -1.957,-10.091 -1.957,-10.091 -2.17,5.727 -7.427,4.653 -7.427,4.653 -7.74,-1.812 -2.447,-6.411 -2.447,-6.411 0,0 -2.787,-6.571 -0.013,-0.031 2.774,6.539 7.909,-2.34 7.909,-2.34 -7.883,4.511 -9.112,-1.879 -9.112,-1.879 -0.175,-3.539 3.045,-3.506 3.045,-3.506 0.917,6.775 6.597,-0.513 6.597,-0.513 -5.898,2.14 -4.887,-3.13 -4.887,-3.13 6.177,0.441 5.558,-6.286 5.558,-6.286 -1.041,1.432 -2.402,1.482 -2.402,1.482 3.145,-5.418 2.298,-10.807 2.298,-10.807 -4.438,3.608 -3.049,9.378 -3.049,9.378 -0.845,0.085 -1.489,-0.258 -1.489,-0.258 0.014,1.474 1.288,2.677 1.288,2.677 -1.646,0.673 -4.336,-1.614 -4.336,-1.614 l -8.371,10.324 c 9.309,1.671 0.25,6.408 0.25,6.408 0.595,-5.488 -3.433,-3.085 -3.433,-3.085 -5.145,3.678 -2.24,7.032 -2.24,7.032 -7.857,-0.859 -2.279,-7.032 -2.279,-7.032 -4.501,1.695 -3.124,4.536 -3.124,4.536 -6.543,-3.513 1.661,-7.516 1.661,-7.516 -5.412,-0.616 -5.674,2.119 -5.674,2.119 -1.677,-1.762 -0.475,-3.439 -0.475,-3.439 1.957,-3.915 4.166,-2.545 5.676,-1.678 1.51,0.867 5.705,0.699 5.705,0.699 l 9.031,-11.241 c -3.691,1.175 -4.177,-0.841 -4.177,-0.841 4.049,-3.783 2.684,-8.545 2.684,-8.545 -1.476,5.838 -4.272,5.95 -4.272,5.95 1.386,-2.21 1.252,-8.052 1.252,-8.052 -2.639,11.052 -8.523,13.757 -8.523,13.757 -1.029,-1.006 -0.446,-11.848 -0.446,-11.848 0,0 -4.585,10.5 -10.394,7.955 4.489,-1.974 9.32,-14.375 9.32,-14.375 0,0 -8.446,11.752 -12.733,10.595 -0.723,-6.65 5.41,-14.839 5.41,-14.839 0,0 -8.763,5.817 -9.755,0.689 3.892,0.317 9.755,-4.984 9.755,-4.984 0,0 -7.752,2.749 -10.175,0.685 1.67,-3.808 7.409,-7.022 7.409,-7.022 0,0 -6.718,-0.093 -6.989,-3.38 2.619,1.211 6.574,0.245 6.574,0.245 0,0 -5.759,-1.41 -7.518,-4.698 2.194,-1.816 5.167,-1.816 5.167,-1.816 0,0 -3.348,-1.392 -2.973,-5.279 2.762,2.751 6.648,3.275 6.648,3.275 0,0 -5.255,-2.798 -6.025,-5.772 2.235,-1.452 6.581,-0.666 6.581,-0.666 0,0 -2.336,-1.561 -2.336,-4.8 2.761,2.75 7.095,4.482 7.095,4.482 0,0 -5.596,-5.106 -4.652,-7.628 3.041,-0.535 6.928,1.55 6.928,1.55 0,0 -3.464,-2.714 -3.464,-5.954 16.712,2.785 22.388,13.853 22.388,13.853 0,0 5.231,8.015 -3.368,10.763 -0.123,4.601 5.042,3.928 5.042,3.928 2.666,-1.493 1.333,-5.188 1.333,-5.188 5.665,-1.384 4.298,-5.735 4.298,-5.735 10.022,-7.5 -1.386,-10.682 -1.386,-10.682 -2.739,-0.869 -4.036,0 -4.036,0 -1.093,-3.482 2.457,-4.779 2.457,-4.779 0,0 10.781,-6.328 14.902,3.638 2.271,5.49 -1.533,12.663 -1.572,15.569 -0.066,4.874 3.569,3.32 2.57,7.445 0,0 5.361,0.405 5.238,-4.196 -8.599,-2.748 -3.368,-10.763 -3.368,-10.763 0,0 5.676,-11.068 22.388,-13.853 0,3.24 -3.464,5.954 -3.464,5.954 0,0 3.887,-2.085 6.928,-1.55 0.943,2.522 -4.653,7.628 -4.653,7.628 0,0 4.334,-1.732 7.096,-4.482 0,3.239 -2.336,4.8 -2.336,4.8 0,0 4.346,-0.786 6.581,0.666 -0.77,2.974 -6.026,5.772 -6.026,5.772 0,0 3.887,-0.524 6.648,-3.275 0.375,3.887 -2.972,5.279 -2.972,5.279 0,0 2.972,0 5.167,1.816 -1.759,3.288 -7.518,4.698 -7.518,4.698 0,0 3.955,0.966 6.573,-0.245 -0.27,3.287 -6.989,3.38 -6.989,3.38 0,0 5.739,3.214 7.41,7.022 -2.423,2.064 -10.175,-0.685 -10.175,-0.685 0,0 5.863,5.301 9.754,4.984 -0.991,5.128 -9.754,-0.689 -9.754,-0.689 0,0 6.133,8.189 5.41,14.839 -4.288,1.157 -12.733,-10.595 -12.733,-10.595 0,0 4.83,12.401 9.319,14.375 -5.808,2.545 -10.393,-7.955 -10.393,-7.955 0,0 0.582,10.842 -0.447,11.848 0,0 -5.883,-2.705 -8.523,-13.757 0,0 -0.134,5.842 1.253,8.052 0,0 -2.796,-0.112 -4.272,-5.95 0,0 -1.365,4.762 2.684,8.545 0,0 -0.487,2.016 -4.178,0.841 l 9.032,11.241 c 0,0 4.194,0.168 5.704,-0.699 1.51,-0.867 3.719,-2.237 5.677,1.678 0,0 1.202,1.677 -0.476,3.439 0,0 -0.261,-2.735 -5.673,-2.119"
   style="fill:#ffffff"
   id="path6" />
            <g
   transform="translate(-0.100788,-0.0458128)"
   id="g10">
                <path
   d="m 95.567,52.806 h 4.586 c -0.448,-3.355 3.288,-9.082 3.288,-9.082 l -4.854,1.723 -3.02,-3.512 -3.02,3.512 -4.855,-1.723 c 0,0 3.736,5.727 3.289,9.082 h 4.586"
   style="fill:#f9de81"
   id="path8" />
            </g>
        </g></g>
</svg>

<?xml version="1.0" encoding="UTF-8" standalone="no"?>
<!DOCTYPE svg PUBLIC "-//W3C//DTD SVG 1.1//EN" "http://www.w3.org/Graphics/SVG/1.1/DTD/svg11.dtd">
<svg width="100%" height="100%" viewBox="0 0 192 192" version="1.1" xmlns="http://www.w3.org/2000/svg" xmlns:xlink="http://www.w3.org/1999/xlink" xml:space="preserve" xmlns:serif="http://www.serif.com/" style="fill-rule:evenodd;clip-rule:evenodd;stroke-linejoin:round;stroke-miterlimit:2;">
    <g id="Layer1">
        <g transform="matrix(1,0,0,1,8,8)">
            <path d="M164.5,21.5C164.5,15.981 160.019,11.5 154.5,11.5L21.5,11.5C15.981,11.5 11.5,15.981 11.5,21.5L11.5,154.5C11.5,160.019 15.981,164.5 21.5,164.5L154.5,164.5C160.019,164.5 164.5,160.019 164.5,154.5L164.5,21.5Z" style="fill:rgb(220,80,94);"/>
        </g>
        <g transform="matrix(0.746033,0,0,0.746033,24.704,26.5096)">
            <path d="M123.664,126.395C123.664,126.395 131.867,130.398 125.325,133.911C125.325,133.911 126.702,131.07 122.201,129.375C122.201,129.375 127.778,135.548 119.922,136.407C119.922,136.407 122.827,133.053 117.682,129.375C117.682,129.375 113.654,126.972 114.249,132.46C114.249,132.46 105.19,127.723 114.498,126.052L106.128,115.728C106.128,115.728 103.438,118.015 101.791,117.342C101.791,117.342 103.065,116.139 103.08,114.665C103.08,114.665 102.435,115.008 101.591,114.923C101.591,114.923 102.98,109.153 98.541,105.545C98.541,105.545 97.556,110.934 100.701,116.352C100.701,116.352 99.34,116.302 98.299,114.87C98.299,114.87 97.681,121.597 103.857,121.156C103.857,121.156 104.868,126.426 98.97,124.286C98.97,124.286 104.65,131.574 105.567,124.799C105.567,124.799 108.787,124.766 108.612,128.305C108.612,128.305 107.384,134.695 99.5,130.184C99.5,130.184 104.636,139.063 107.409,132.524C110.183,125.984 107.396,132.555 107.396,132.555C107.396,132.555 112.689,137.154 104.949,138.966C104.949,138.966 99.692,140.04 97.522,134.313C97.522,134.313 99.103,141.3 95.43,144.404C91.758,141.3 93.473,134.313 93.473,134.313C91.303,140.04 86.046,138.966 86.046,138.966C78.306,137.154 83.599,132.555 83.599,132.555C83.599,132.555 80.812,125.984 83.586,132.524C86.36,139.063 91.495,130.184 91.495,130.184C83.612,134.695 82.383,128.305 82.383,128.305C82.208,124.766 85.428,124.799 85.428,124.799C86.345,131.574 92.025,124.286 92.025,124.286C86.127,126.426 87.138,121.156 87.138,121.156C93.315,121.597 92.696,114.87 92.696,114.87C91.655,116.302 90.294,116.352 90.294,116.352C93.439,110.934 92.592,105.545 92.592,105.545C88.154,109.153 89.543,114.923 89.543,114.923C88.698,115.008 88.054,114.665 88.054,114.665C88.068,116.139 89.342,117.342 89.342,117.342C87.696,118.015 85.006,115.728 85.006,115.728L76.635,126.052C85.944,127.723 76.885,132.46 76.885,132.46C77.48,126.972 73.452,129.375 73.452,129.375C68.307,133.053 71.212,136.407 71.212,136.407C63.355,135.548 68.933,129.375 68.933,129.375C64.432,131.07 65.809,133.911 65.809,133.911C59.266,130.398 67.47,126.395 67.47,126.395C62.058,125.779 61.796,128.514 61.796,128.514C60.119,126.752 61.321,125.075 61.321,125.075C63.278,121.16 65.487,122.53 66.997,123.397C68.507,124.264 72.702,124.096 72.702,124.096L81.733,112.855C78.042,114.03 77.556,112.014 77.556,112.014C81.605,108.231 80.24,103.469 80.24,103.469C78.764,109.307 75.968,109.419 75.968,109.419C77.354,107.209 77.22,101.367 77.22,101.367C74.581,112.419 68.697,115.124 68.697,115.124C67.668,114.118 68.251,103.276 68.251,103.276C68.251,103.276 63.666,113.776 57.857,111.231C62.346,109.257 67.177,96.856 67.177,96.856C67.177,96.856 58.731,108.608 54.444,107.451C53.721,100.801 59.854,92.612 59.854,92.612C59.854,92.612 51.091,98.429 50.099,93.301C53.991,93.618 59.854,88.317 59.854,88.317C59.854,88.317 52.102,91.066 49.679,89.002C51.349,85.194 57.088,81.98 57.088,81.98C57.088,81.98 50.37,81.887 50.099,78.6C52.718,79.811 56.673,78.845 56.673,78.845C56.673,78.845 50.914,77.435 49.155,74.147C51.349,72.331 54.322,72.331 54.322,72.331C54.322,72.331 50.974,70.939 51.349,67.052C54.111,69.803 57.997,70.327 57.997,70.327C57.997,70.327 52.742,67.529 51.972,64.555C54.207,63.103 58.553,63.889 58.553,63.889C58.553,63.889 56.217,62.328 56.217,59.089C58.978,61.839 63.312,63.571 63.312,63.571C63.312,63.571 57.716,58.465 58.66,55.943C61.701,55.408 65.588,57.493 65.588,57.493C65.588,57.493 62.124,54.779 62.124,51.539C78.836,54.324 84.512,65.392 84.512,65.392C84.512,65.392 89.743,73.407 81.144,76.155C81.021,80.756 86.186,80.083 86.186,80.083C88.852,78.59 87.519,74.895 87.519,74.895C93.184,73.511 91.817,69.16 91.817,69.16C101.839,61.66 90.431,58.478 90.431,58.478C87.692,57.609 86.395,58.478 86.395,58.478C85.302,54.996 88.852,53.699 88.852,53.699C88.852,53.699 99.633,47.371 103.754,57.337C106.025,62.827 102.221,70 102.182,72.906C102.116,77.78 105.751,76.226 104.752,80.351C104.752,80.351 110.113,80.756 109.99,76.155C101.391,73.407 106.622,65.392 106.622,65.392C106.622,65.392 112.298,54.324 129.01,51.539C129.01,54.779 125.546,57.493 125.546,57.493C125.546,57.493 129.433,55.408 132.474,55.943C133.417,58.465 127.821,63.571 127.821,63.571C127.821,63.571 132.155,61.839 134.917,59.089C134.917,62.328 132.581,63.889 132.581,63.889C132.581,63.889 136.927,63.103 139.162,64.555C138.392,67.529 133.136,70.327 133.136,70.327C133.136,70.327 137.023,69.803 139.784,67.052C140.159,70.939 136.812,72.331 136.812,72.331C136.812,72.331 139.784,72.331 141.979,74.147C140.22,77.435 134.461,78.845 134.461,78.845C134.461,78.845 138.416,79.811 141.034,78.6C140.764,81.887 134.045,81.98 134.045,81.98C134.045,81.98 139.784,85.194 141.455,89.002C139.032,91.066 131.28,88.317 131.28,88.317C131.28,88.317 137.143,93.618 141.034,93.301C140.043,98.429 131.28,92.612 131.28,92.612C131.28,92.612 137.413,100.801 136.69,107.451C132.402,108.608 123.957,96.856 123.957,96.856C123.957,96.856 128.787,109.257 133.276,111.231C127.468,113.776 122.883,103.276 122.883,103.276C122.883,103.276 123.465,114.118 122.436,115.124C122.436,115.124 116.553,112.419 113.913,101.367C113.913,101.367 113.779,107.209 115.166,109.419C115.166,109.419 112.37,109.307 110.894,103.469C110.894,103.469 109.529,108.231 113.578,112.014C113.578,112.014 113.091,114.03 109.4,112.855L118.432,124.096C118.432,124.096 122.626,124.264 124.136,123.397C125.646,122.53 127.855,121.16 129.813,125.075C129.813,125.075 131.015,126.752 129.337,128.514C129.337,128.514 129.076,125.779 123.664,126.395" style="fill:white;"/>
            <g transform="matrix(1,0,0,1,-0.100788,-0.0458128)">
                <path d="M95.567,52.806L100.153,52.806C99.705,49.451 103.441,43.724 103.441,43.724L98.587,45.447L95.567,41.935L92.547,45.447L87.692,43.724C87.692,43.724 91.428,49.451 90.981,52.806L95.567,52.806" style="fill:rgb(249,222,129);"/>
            </g>
        </g>
    </g>
</svg>
